X: 7658
T: Coleford Jigge, The
R: hornpipe
M: 4/4
K: Dmajor
|:AG|F2 F2 DFA2|dAFD E2E2|D2FA dcdf|edcB ABAG|
F2 F2 DFA2|dAFD E2E2|DFAd cdec|d2 dc d2:|
|:ed|cdef g2fg|defg a3f|g2 ge f2 fd|edcB ABAG|
F2 F2 DFA2|dAFD E2E2|DFAd cdec|d2 dc d2:|

